svg/u1f42b.svg

<svg viewBox="0 0 128 128" xmlns="http://www.w3.org/2000/svg">
  <path d="M63.29,84.78l-10.04,1.03c0,0,1.13,13.98,0.94,15.02c-0.19,1.03-2.72,9.76-3,10.32 s-4.21,3.91-3.47,6.01c0.59,1.67,3.19,2.16,5.91,2.25c2.63,0.09,5.44-0.84,5.91-1.78c0.47-0.94,0.69-3.55,0.69-3.55 s3.72-8.74,4-12.21C64.51,98.39,63.29,84.78,63.29,84.78z" fill="#DF9047"/>
  <path d="M88.16,87.6c0,0,2.06,11.45,1.78,12.86c-0.28,1.41-2.53,9.1-2.53,9.1s-2.98,2.85-2.12,5.36 c0.65,1.89,4.11,1.78,6.26,1.83c2.96,0.07,4.72-0.92,5.46-2.29c0.61-1.12,0.26-3.5,0.26-3.5s2.53-9.48,2.63-11.45 c0.09-1.97-2.82-17.46-2.82-17.46L88.16,87.6z" fill="#DF9047"/>
  <path d="M43.12,31.86c0,0,9.09,2.52,9.75,3.46c0.66,0.94,1.13,8.73-0.94,10.98 c-2.06,2.25-5.29,2.45-5.29,2.45l-10.66,8.81l16.99,19.52l16.14,9.76c0,0-2.07,10.56-14.08,11.07c-8.82,0.38-12.39-4.04-12.39-4.04 s-9.29,0.28-13.61-4.13c-4.93-5.04-4.79-12.11-4.79-12.11s-5.89-2.05-7.32-8.07c-2.82-11.83,4.88-17.64,4.97-18.11 c0.09-0.47-2.16-3.19-2.16-7.41c0-3.52,0.56-6.95,0.56-6.95L43.12,31.86z" fill="#D27856"/>
  <path d="M18.1,36.4l-6.69,6.12c0,0,2.5,0.53,5.56-0.18c0.87-0.2,2.25-0.95,2.25-0.95s2.75,1.9,4.5,2.82 s4.22,1.97,4.22,1.97s-0.49,6.34-0.42,7.6s9.15,6.26,9.15,6.26l6.69-1.76l5.03-7.92c0,0-0.04-5.88,0.81-7.43 c0.84-1.55,3.94-5.56,4.86-9.78c0.92-4.22,0.49-6.55,0.49-6.55s4.05-2.64,4.47-5.31s-0.35-3.94-0.35-3.94l-15.24,7.71L18.1,36.4z" fill="#E09147"/>
  <path d="M35.34,15.14c0,0-11.47,3.45-12.95,4.29c-1.48,0.84-2.46,1.55-4.29,1.62 c-1.83,0.07-9.64,0.77-12.18,6.9S3.85,40.52,8.1,42.24c4.86,1.97,11.12-2.46,11.12-2.46s8.45,4.43,13.51,5.56 c5.07,1.13,7.77,0.9,8.87,0.7c1.97-0.35,6.98-4.26,8.45-8.59c1.62-4.79,1.69-12.67,1.69-12.67s10.03-3.98,6.12-9.15 c-3-3.98-15.27,4.22-15.27,4.22L35.34,15.14z" fill="#F6B03E"/>
  <path d="M37.67,54.91c5,0.07,10.77-6.05,10.77-6.05s-0.07,6.69,1.76,8.94c2.39,2.94,7.39,1.13,7.39,1.13 s-0.14-4.58,2.18-7.95c2.32-3.38,4.15-4.15,4.15-4.15s-0.56-10.63,0.28-13.16c0.84-2.53,13.16-10.56,13.16-10.56l11.68,5.14 l9.78-5.84c0,0,8.17,5.49,8.94,8.8s0.7,5.35,1.2,8.87c0.23,1.62,0.35,6.34,0.35,6.34s5.49,3.31,7.53,8.73s3.01,12.83,3.31,15.91 c0.35,3.59,0.99,8.87,1.69,10.28c0.7,1.41,3.1,4.08,1.62,5.14s-4.43-1.83-5.7-4.22s-3.73-10.21-3.73-10.21s0.42,5.07-0.63,9.36 c-0.45,1.84-1.48,5.63-1.48,5.63s3.03,10.63,2.96,12.81c-0.07,2.18-2.96,12.74-2.96,12.74s0.7,3.66-0.99,5.56 c-1.18,1.32-2.75,1.69-7.25,1.83c-2.89,0.09-5.72-0.56-5.56-3.1c0.18-2.78,3.94-6.41,4.15-6.48c0.21-0.07,2.39-9.08,2.39-10.35 c0-1.27-4.5-13.66-4.5-13.66s-4.15,2.67-10.49,3.1c-6.34,0.42-10.35,0.42-10.35,0.42s0.63,9.5,0.42,12.18 c-0.21,2.67-1.76,6.55-2.18,9.43c-0.42,2.89-0.52,9.01-3.48,9.5c-2.11,0.35-9.85,0.95-11.54-0.99c-1.99-2.28,3.17-6.58,3.17-6.58 s1.44-5,2.08-7.18c0.58-2.01,0.84-3.98,0.99-5.46s-1.69-12.6-1.69-12.6s-4.01,0.14-11.4,0s-17.25-2.82-23.51-13.59 S27.6,52.24,27.6,52.24S31.05,54.82,37.67,54.91z" fill="#F6B03E"/>
  <path d="M8.1,37.2l0.09-3.75c0,0,6.66-0.66,5.68-3.43c-0.81-2.27-6.48,0.42-6.48,0.42s-0.47-4.46-1.97-2.67 c-1.5,1.78,0.42,4.04,0.42,4.04l-0.09,4.32c0,0-0.89-2.25-1.74-1.08s0.33,3.24,2.21,4.6c1.62,1.18,3.38,1.88,5.73,1.55 c2.5-0.35,4.73-2.72,3.19-3.71c-1.54-0.99-2.02,1.31-4.55,0.89C7.92,37.93,8.1,37.2,8.1,37.2z" fill="#B78958"/>
  <path d="M41.52,26.03c0.78,0.9-1.98,4.46-5.77,3.24c-3.39-1.09-4.74-3-4.32-3.99 c0.42-0.99,4.79,0.09,5.73,0.19C38.09,25.56,40.91,25.33,41.52,26.03z" fill="#34302F"/>
  <path d="M32.63,27.07c0,0-0.67,0.6-1.48,0.74c-0.81,0.14-2.22,0.21-2.11,1.13c0.11,0.92,1.44,1.34,3.41,0.39 c1.39-0.67,2.25-1.65,2.25-1.65l0.49,0.46c0,0-1.11,1.42-1.69,1.72c-0.95,0.49-2.39,0.58-1.97,1.76c0.49,1.37,2.53,0.21,3.52-0.56 c1.24-0.97,1.72-2.29,1.72-2.29l0.84,0.11c0,0-0.39,1.09-0.77,1.62c-0.39,0.53-2.18,1.65-0.92,2.75c1.13,0.97,2.5-1.06,3.06-2.22 c0.56-1.16,0.77-3.17,0.77-3.17L32.63,27.07z" fill="#34302F"/>
  <path d="M51.53,15.28c-0.04-0.11-4.15-8.96-17.53-8.17C23.18,7.76,18.9,13.03,21.34,18.56 c2.1,4.75,6.93,2.92,6.93,2.92s-0.83,4.36,4.65,5.6c6.41,1.44,11.33-6.56,13.01-7.24C49.07,18.56,51.53,15.28,51.53,15.28z" fill="#D27856"/>
  <path d="M75.61,12.12C65.12,12.47,63.85,34.64,63.99,35.2c0.08,0.31,1.18-0.75,2.25-1.97 c0.87-0.99,1.56-2.22,2.89-1.9c2.96,0.7,1.75,6.77,5.35,7.46c3.31,0.63,2.82-6.26,5.35-6.12c3.8,0.21,1.69,10.7,7.39,10.42 c4.51-0.22,1.48-9.57,4.93-10.42c3.37-0.82,4.68,6.86,7.53,5.91c3.8-1.27,0.28-8.31,2.89-9.36c2.6-1.06,3.45,6.12,5.63,5 c0.62-0.32-2.11-22.11-12.39-21.82C88.35,12.61,86.1,24.5,86.1,24.5S83.64,11.85,75.61,12.12z" fill="#DF9047"/>
</svg>

<svg viewBox="0 0 128 128" xmlns="http://www.w3.org/2000/svg">
  <defs/>
  <path d="M63.29,84.78 L53.25,85.81 C53.25,85.81 54.38,99.79 54.19,100.83 C54,101.86 51.47,110.59 51.19,111.15 C50.91,111.71 46.98,115.06 47.72,117.16 C48.31,118.83 50.91,119.32 53.63,119.41 C56.26,119.5 59.07,118.57 59.54,117.63 C60.01,116.69 60.23,114.08 60.23,114.08 C60.23,114.08 63.95,105.34 64.23,101.87 C64.51,98.39 63.29,84.78 63.29,84.78 Z" fill="#DF9047"/>
  <path d="M88.16,87.6 C88.16,87.6 90.22,99.05 89.94,100.46 C89.66,101.87 87.41,109.56 87.41,109.56 C87.41,109.56 84.43,112.41 85.29,114.92 C85.94,116.81 89.4,116.7 91.55,116.75 C94.51,116.82 96.27,115.83 97.01,114.46 C97.62,113.34 97.27,110.96 97.27,110.96 C97.27,110.96 99.8,101.48 99.9,99.51 C99.99,97.54 97.08,82.05 97.08,82.05 L88.16,87.6 Z" fill="#DF9047"/>
  <path d="M43.12,31.86 C43.12,31.86 52.21,34.38 52.87,35.32 C53.53,36.26 54,44.05 51.93,46.3 C49.87,48.55 46.64,48.75 46.64,48.75 L35.98,57.56 L52.97,77.08 L69.11,86.84 C69.11,86.84 67.04,97.4 55.03,97.91 C46.21,98.29 42.64,93.87 42.64,93.87 C42.64,93.87 33.35,94.15 29.03,89.74 C24.1,84.7 24.24,77.63 24.24,77.63 C24.24,77.63 18.35,75.58 16.92,69.56 C14.1,57.73 21.8,51.92 21.89,51.45 C21.98,50.98 19.73,48.26 19.73,44.04 C19.73,40.52 20.29,37.09 20.29,37.09 L43.12,31.86 Z" fill="#D27856"/>
  <path d="M18.1,36.4 L11.41,42.52 C11.41,42.52 13.91,43.05 16.97,42.34 C17.84,42.14 19.22,41.39 19.22,41.39 C19.22,41.39 21.97,43.29 23.72,44.21 C25.47,45.13 27.94,46.18 27.94,46.18 C27.94,46.18 27.45,52.52 27.52,53.78 C27.59,55.04 36.67,60.04 36.67,60.04 L43.36,58.28 L48.39,50.36 C48.39,50.36 48.35,44.48 49.2,42.93 C50.04,41.38 53.14,37.37 54.06,33.15 C54.98,28.93 54.55,26.6 54.55,26.6 C54.55,26.6 58.6,23.96 59.02,21.29 C59.44,18.62 58.67,17.35 58.67,17.35 L43.43,25.06 L18.1,36.4 Z" fill="#E09147"/>
  <path d="M35.34,15.14 C35.34,15.14 23.87,18.59 22.39,19.43 C20.91,20.27 19.93,20.98 18.1,21.05 C16.27,21.12 8.46,21.82 5.92,27.95 C3.38,34.08 3.85,40.52 8.1,42.24 C12.96,44.21 19.22,39.78 19.22,39.78 C19.22,39.78 27.67,44.21 32.73,45.34 C37.8,46.47 40.5,46.24 41.6,46.04 C43.57,45.69 48.58,41.78 50.05,37.45 C51.67,32.66 51.74,24.78 51.74,24.78 C51.74,24.78 61.77,20.8 57.86,15.63 C54.86,11.65 42.59,19.85 42.59,19.85 L35.34,15.14 Z" fill="#F6B03E"/>
  <path d="M37.67,54.91 C42.67,54.98 48.44,48.86 48.44,48.86 C48.44,48.86 48.37,55.55 50.2,57.8 C52.59,60.74 57.59,58.93 57.59,58.93 C57.59,58.93 57.45,54.35 59.77,50.98 C62.09,47.6 63.92,46.83 63.92,46.83 C63.92,46.83 63.36,36.2 64.2,33.67 C65.04,31.14 77.36,23.11 77.36,23.11 L89.04,28.25 L98.82,22.41 C98.82,22.41 106.99,27.9 107.76,31.21 C108.53,34.52 108.46,36.56 108.96,40.08 C109.19,41.7 109.31,46.42 109.31,46.42 C109.31,46.42 114.8,49.73 116.84,55.15 C118.88,60.57 119.85,67.98 120.15,71.06 C120.5,74.65 121.14,79.93 121.84,81.34 C122.54,82.75 124.94,85.42 123.46,86.48 C121.98,87.54 119.03,84.65 117.76,82.26 C116.49,79.87 114.03,72.05 114.03,72.05 C114.03,72.05 114.45,77.12 113.4,81.41 C112.95,83.25 111.92,87.04 111.92,87.04 C111.92,87.04 114.95,97.67 114.88,99.85 C114.81,102.03 111.92,112.59 111.92,112.59 C111.92,112.59 112.62,116.25 110.93,118.15 C109.75,119.47 108.18,119.84 103.68,119.98 C100.79,120.07 97.96,119.42 98.12,116.88 C98.3,114.1 102.06,110.47 102.27,110.4 C102.48,110.33 104.66,101.32 104.66,100.05 C104.66,98.78 100.16,86.39 100.16,86.39 C100.16,86.39 96.01,89.06 89.67,89.49 C83.33,89.91 79.32,89.91 79.32,89.91 C79.32,89.91 79.95,99.41 79.74,102.09 C79.53,104.76 77.98,108.64 77.56,111.52 C77.14,114.41 77.04,120.53 74.08,121.02 C71.97,121.37 64.23,121.97 62.54,120.03 C60.55,117.75 65.71,113.45 65.71,113.45 C65.71,113.45 67.15,108.45 67.79,106.27 C68.37,104.26 68.63,102.29 68.78,100.81 C68.93,99.33 67.09,88.21 67.09,88.21 C67.09,88.21 63.08,88.35 55.69,88.21 C48.3,88.07 38.44,85.39 32.18,74.62 C25.92,63.85 27.6,52.24 27.6,52.24 C27.6,52.24 31.05,54.82 37.67,54.91 Z" fill="#F6B03E"/>
  <path d="M8.1,37.2 L8.19,33.45 C8.19,33.45 14.85,32.79 13.87,30.02 C13.06,27.75 7.39,30.44 7.39,30.44 C7.39,30.44 6.92,25.98 5.42,27.77 C3.92,29.55 5.84,31.81 5.84,31.81 L5.75,36.13 C5.75,36.13 4.86,33.88 4.01,35.05 C3.16,36.22 4.34,38.29 6.22,39.65 C7.84,40.83 9.6,41.53 11.95,41.2 C14.45,40.85 16.68,38.48 15.14,37.49 C13.6,36.5 13.12,38.8 10.59,38.38 C7.92,37.93 8.1,37.2 8.1,37.2 Z" fill="#B78958"/>
  <path d="M41.52,26.03 C42.3,26.93 39.54,30.49 35.75,29.27 C32.36,28.18 31.01,26.27 31.43,25.28 C31.85,24.29 36.22,25.37 37.16,25.47 C38.09,25.56 40.91,25.33 41.52,26.03 Z" fill="#34302F"/>
  <path d="M32.63,27.07 C32.63,27.07 31.96,27.67 31.15,27.81 C30.34,27.95 28.93,28.02 29.04,28.94 C29.15,29.86 30.48,30.28 32.45,29.33 C33.84,28.66 34.7,27.68 34.7,27.68 L35.19,28.14 C35.19,28.14 34.08,29.56 33.5,29.86 C32.55,30.35 31.11,30.44 31.53,31.62 C32.02,32.99 34.06,31.83 35.05,31.06 C36.29,30.09 36.77,28.77 36.77,28.77 L37.61,28.88 C37.61,28.88 37.22,29.97 36.84,30.5 C36.45,31.03 34.66,32.15 35.92,33.25 C37.05,34.22 38.42,32.19 38.98,31.03 C39.54,29.87 39.75,27.86 39.75,27.86 L32.63,27.07 Z" fill="#34302F"/>
  <path d="M51.53,15.28 C51.49,15.17 47.38,6.32 34,7.11 C23.18,7.76 18.9,13.03 21.34,18.56 C23.44,23.31 28.27,21.48 28.27,21.48 C28.27,21.48 27.44,25.84 32.92,27.08 C39.33,28.52 44.25,20.52 45.93,19.84 C49.07,18.56 51.53,15.28 51.53,15.28 Z" fill="#D27856"/>
  <path d="M75.61,12.12 C65.12,12.47 63.85,34.64 63.99,35.2 C64.07,35.51 65.17,34.45 66.24,33.23 C67.11,32.24 67.8,31.01 69.13,31.33 C72.09,32.03 70.88,38.1 74.48,38.79 C77.79,39.42 77.3,32.53 79.83,32.67 C83.63,32.88 81.52,43.37 87.22,43.09 C91.73,42.87 88.7,33.52 92.15,32.67 C95.52,31.85 96.83,39.53 99.68,38.58 C103.48,37.31 99.96,30.27 102.57,29.22 C105.17,28.16 106.02,35.34 108.2,34.22 C108.82,33.9 106.09,12.11 95.81,12.4 C88.35,12.61 86.1,24.5 86.1,24.5 C86.1,24.5 83.64,11.85 75.61,12.12 Z" fill="#DF9047"/>
</svg>
